X:642
T:Reel 642
M:4/4
K:Fmaj
L:1/8
fd|c>F (3FFF cBAB|c>F (3FFF F2BA|G>E (3GEG BGdG|BGde fdef|c>F (3FFF FGAF|cFAc f2ef|gagf efgf|ecBG F2|AB|cffe f2ef|gefe gfec|cdef g2ef|gc'c'd' g2ef|gc'c'b c'bgf| (3abc' gf eccd|_ecdf ecgf|ecBG F2|
